app/images/icon/icon-svg/eczotical.svg

<svg width="110" height="102" viewBox="0 0 110 102" fill="none" xmlns="http://www.w3.org/2000/svg">
<path d="M110 66.8043C110 64.9878 108.527 63.5151 106.711 63.5151H105.684L106.135 63.0635C107.42 61.7791 107.42 59.6962 106.135 58.4117C104.851 57.1269 102.768 57.1273 101.484 58.4117L96.3802 63.5149H96.2285C92.3312 63.5149 88.6467 61.8133 86.1199 58.8465L81.6262 53.5708C84.717 49.3627 87.1765 44.3987 88.9778 38.7146C94.1445 36.8854 97.8059 33.8778 99.8716 29.762C103.531 22.4705 104.825 5.64304 95.8833 1.12187C91.8936 -0.89551 86.729 -0.175568 81.3407 3.14806C77.0797 5.77646 73.1683 9.7689 71.1328 13.5671C67.2461 20.8198 68.7702 27.2151 69.7512 29.915C68.6729 33.3257 67.2611 36.2675 65.5271 38.7494L61.4949 35.3149C58.5282 32.7881 56.8266 29.1036 56.8266 25.2063V25.0548L61.9298 19.9516C63.2143 18.6673 63.2143 16.5844 61.9298 15.2998C60.6455 14.0155 58.5625 14.0155 57.278 15.2998L56.8264 15.7514V14.7243C56.8264 12.9078 55.3536 11.435 53.5371 11.435C51.7204 11.435 50.2479 12.9078 50.2479 14.7243V15.7514L49.7963 15.2998C48.5119 14.0155 46.429 14.0155 45.1445 15.2998C43.8599 16.5842 43.8599 18.6671 45.1445 19.9516L50.2479 25.0548V25.2063C50.2479 31.0341 52.7925 36.544 57.229 40.3231L61.044 43.5726C55.6321 47.8979 48.3102 49.4626 39.1226 48.2236C38.3606 48.1207 37.5968 48.0425 36.8324 47.9857L31.7266 41.9914C27.9477 37.5549 22.4378 35.0103 16.6098 35.0103H16.4583L11.3549 29.9071C10.0706 28.6227 7.98767 28.6227 6.70312 29.9071C5.41879 31.1914 5.41879 33.2743 6.70312 34.5589L7.15472 35.0105H6.12777C4.31127 35.0105 2.83851 36.4832 2.83851 38.2997C2.83851 40.1162 4.31127 41.589 6.12777 41.589H7.15494L6.70312 42.0408C5.41879 43.3251 5.41879 45.408 6.70312 46.6926C7.3455 47.335 8.18726 47.6562 9.02902 47.6562C9.87056 47.6562 10.7128 47.335 11.3551 46.6926L16.4585 41.5892H16.61C20.507 41.5892 24.1916 43.2908 26.7184 46.2575L28.4427 48.2818C26.3169 48.595 24.2318 49.0885 22.2217 49.7612C16.7032 51.6074 11.7257 54.813 7.82783 59.0311C1.10666 66.3037 -1.35502 75.3742 0.709411 85.262C2.22965 92.543 5.69529 97.7021 5.84203 97.9182C6.46357 98.833 7.49009 99.3592 8.56259 99.3592C8.8247 99.3592 9.08961 99.3276 9.35172 99.2631C10.6878 98.9329 11.677 97.8059 11.8314 96.4384C11.8486 96.2882 13.6316 81.3304 22.8398 72.867C24.0127 71.7891 28.4464 68.3542 36.2643 69.4087C39.0006 69.7778 41.6464 69.9958 44.2037 70.07L48.8514 76.1707C51.2132 79.2709 52.0923 83.2328 51.2636 87.0407L51.2314 87.1887L45.1597 91.0903C43.6315 92.0725 43.1885 94.1075 44.1708 95.6357C45.1528 97.1643 47.1878 97.6067 48.7162 96.6249L49.2534 96.2796L49.0349 97.2831C48.6488 99.0584 49.7746 100.81 51.5496 101.197C51.7853 101.248 52.0203 101.273 52.2521 101.273C53.7657 101.273 55.128 100.222 55.4632 98.6822L55.6817 97.6787L56.027 98.216C56.6554 99.1942 57.715 99.7279 58.7971 99.7279C59.4058 99.7279 60.022 99.5588 60.5724 99.2054C62.1006 98.2231 62.5436 96.1881 61.5613 94.6599L57.6598 88.588L57.692 88.4397C58.9312 82.7451 57.6164 76.8201 54.0848 72.1842L52.2584 69.7868C60.737 68.8971 68.0215 66.1095 74.0193 61.4382C75.1526 60.5556 76.2347 59.6079 77.2681 58.5992L81.1128 63.1127C84.8916 67.5492 90.4015 70.0938 96.2296 70.0938H96.3811L101.484 75.1972C102.127 75.8398 102.969 76.1608 103.811 76.1608C104.652 76.1608 105.494 75.8396 106.136 75.1972C107.421 73.9129 107.421 71.83 106.136 70.5454L105.685 70.0936H106.712C108.527 70.0938 110 68.6211 110 66.8043ZM46.2094 63.531C43.3391 63.531 40.3159 63.317 37.1439 62.889C26.7801 61.4915 20.5743 66.0139 18.388 68.0234C12.7596 73.1968 9.48363 80.1378 7.61556 85.7776C5.93699 79.6292 5.64631 71.0842 12.6592 63.4957C18.0802 57.6299 25.6362 54.4454 33.857 54.4454C35.301 54.4454 36.766 54.5436 38.243 54.7428C50.9867 56.4628 61.209 53.3527 68.2015 45.8616C68.2962 45.7737 68.3876 45.6803 68.4735 45.5795C68.4999 45.5483 68.5223 45.5153 68.5474 45.4835C72.0195 41.632 74.6681 36.6697 76.4002 30.6511C76.6341 29.8375 76.5458 28.965 76.1529 28.215C76.126 28.164 73.5745 22.9388 76.9317 16.6744C80.0254 10.9009 88.814 4.91902 92.915 6.99248C92.915 6.99248 92.915 6.99248 92.915 6.99269C94.6492 7.86947 95.848 10.983 96.044 15.1183C96.241 19.2745 95.4164 23.9735 93.9922 26.8112C91.9168 30.9463 87.3997 32.3417 85.9154 32.8002C85.1263 33.0438 83.6576 33.4978 83.1548 35.2442C77.7434 54.0458 65.3351 63.5316 46.2094 63.531Z" fill="#FFC59E"/>
</svg>

<svg width="110" height="102" fill="none" xmlns="http://www.w3.org/2000/svg"><path d="M110 66.804a3.29 3.29 0 00-3.289-3.289h-1.027l.451-.452a3.289 3.289 0 10-4.651-4.651l-5.104 5.103h-.151a13.258 13.258 0 01-10.11-4.669l-4.493-5.275c3.091-4.208 5.55-9.172 7.352-14.856 5.166-1.83 8.828-4.837 10.894-8.953 3.659-7.291 4.953-24.119-3.989-28.64-3.99-2.018-9.154-1.298-14.542 2.026-4.261 2.628-8.173 6.62-10.208 10.42-3.887 7.252-2.363 13.647-1.382 16.347-1.078 3.41-2.49 6.352-4.224 8.834l-4.032-3.434a13.258 13.258 0 01-4.668-10.109v-.151l5.103-5.103a3.29 3.29 0 00-4.652-4.652l-.452.451v-1.027a3.29 3.29 0 00-6.578 0v1.027l-.452-.451a3.29 3.29 0 00-4.651 4.652l5.103 5.103v.151a19.828 19.828 0 006.981 15.117l3.815 3.25c-5.412 4.325-12.734 5.89-21.921 4.65a38.342 38.342 0 00-2.29-.237l-5.106-5.995a19.828 19.828 0 00-15.117-6.98h-.152l-5.103-5.104a3.29 3.29 0 00-4.652 4.652l.452.452H6.128a3.29 3.29 0 000 6.578h1.027l-.452.452a3.29 3.29 0 004.652 4.652l5.104-5.104h.151c3.897 0 7.582 1.702 10.108 4.669l1.725 2.024a36.27 36.27 0 00-6.221 1.48c-5.519 1.845-10.496 5.051-14.394 9.27-6.721 7.272-9.183 16.342-7.119 26.23 1.52 7.281 4.986 12.44 5.133 12.656a3.29 3.29 0 005.99-1.48c.017-.15 1.8-15.108 11.008-23.571 1.173-1.078 5.606-4.513 13.424-3.458a75.85 75.85 0 007.94.661l4.647 6.1a13.258 13.258 0 012.413 10.87l-.033.149-6.071 3.901a3.29 3.29 0 103.556 5.535l.537-.345-.218 1.003a3.29 3.29 0 006.428 1.4l.219-1.004.345.537a3.286 3.286 0 004.545.99 3.29 3.29 0 00.99-4.546l-3.902-6.072.032-.148a19.828 19.828 0 00-3.607-16.256l-1.827-2.397c8.479-.89 15.764-3.678 21.761-8.349a38.644 38.644 0 003.25-2.839l3.844 4.514a19.827 19.827 0 0015.117 6.98h.151l5.103 5.104a3.281 3.281 0 002.327.964 3.289 3.289 0 002.325-5.615l-.451-.452h1.027a3.289 3.289 0 003.288-3.29zm-63.79-3.273c-2.87 0-5.894-.214-9.066-.642-10.364-1.398-16.57 3.125-18.756 5.134-5.628 5.174-8.904 12.115-10.772 17.755-1.679-6.149-1.97-14.694 5.043-22.282 5.421-5.866 12.977-9.05 21.198-9.05 1.444 0 2.909.098 4.386.297 12.744 1.72 22.966-1.39 29.958-8.881a3.35 3.35 0 00.273-.282c.026-.032.048-.065.073-.096 3.472-3.852 6.121-8.814 7.853-14.833a3.29 3.29 0 00-.247-2.436c-.027-.051-2.579-5.276.779-11.54C80.025 10.9 88.814 4.918 92.915 6.991c1.734.877 2.933 3.991 3.129 8.126.197 4.156-.628 8.856-2.052 11.693-2.075 4.135-6.592 5.53-8.077 5.99-.789.243-2.257.697-2.76 2.443-5.412 18.802-17.82 28.288-36.946 28.287z" fill="#FFC59E"/></svg>
